exports/projections-of-the-number-of-children-per-woman-by-education-scenario_v1_850x600.svg

<svg xmlns="http://www.w3.org/2000/svg" version="1.1" style="background-color:#fff;-webkit-font-smoothing:antialiased" width="850" height="600" font-family="'Helvetica Neue',Helvetica,Arial,sans-serif" font-size="18" text-rendering="optimizeLegibility"><g class="ChartTab"><g class="HeaderView"><g opacity=".8" transform="matrix(.31 0 0 .31 770 15)"><a xmlns:xlink="http://www.w3.org/1999/xlink" xlink:href="https://ourworldindata.org" target="_blank"><g><path fill="#1B2543" d="M0 0h211.2v130.1H0z"/><path fill="#E63912" d="M0 112.2h211.2v17.9H0z"/><g><path fill="none" d="M1.2 12.3h210.2v99.2H1.2z"/><path fill="#FFF" d="M37.8 32.2c0 12.7-7.7 19.4-17.1 19.4-9.7 0-16.6-7.5-16.6-18.7 0-11.7 7.3-19.3 17.1-19.3 10.1.1 16.6 7.7 16.6 18.6zm-28.6.6c0 7.9 4.3 14.9 11.8 14.9 7.5 0 11.8-6.9 11.8-15.3 0-7.3-3.8-14.9-11.8-14.9-7.9 0-11.8 7.3-11.8 15.3zM62.7 43.8c0 2.7.1 5.1.2 7.2h-4.3l-.3-4.3h-.1c-1.3 2.1-4 4.9-8.8 4.9-4.2 0-9.1-2.3-9.1-11.6V24.6h4.8v14.6c0 5 1.5 8.4 5.9 8.4 3.2 0 5.5-2.2 6.3-4.4.3-.7.4-1.6.4-2.5V24.6h4.8v19.2zM67.3 32.8c0-3.1-.1-5.8-.2-8.2h4.2l.2 5.2h.2c1.2-3.5 4.1-5.8 7.3-5.8.5 0 .9.1 1.4.2v4.5c-.5-.1-1-.2-1.6-.2-3.4 0-5.8 2.6-6.5 6.2-.1.7-.2 1.4-.2 2.2V51h-4.8V32.8zM95.4 51L86 14.2h5l4.4 18.6c1.1 4.6 2.1 9.2 2.7 12.7h.1c.6-3.7 1.8-8 3-12.8l4.9-18.5h5l4.5 18.7c1 4.4 2 8.7 2.6 12.6h.1c.8-4 1.8-8.1 3-12.7l4.9-18.5h4.9L120.6 51h-5L111 31.9c-1.1-4.7-1.9-8.3-2.4-12h-.1c-.7 3.7-1.5 7.3-2.8 12L100.4 51h-5zM154.9 37.6c0 9.8-6.8 14-13.2 14-7.2 0-12.7-5.2-12.7-13.6 0-8.8 5.8-14 13.1-14 7.7 0 12.8 5.5 12.8 13.6zm-21 .3c0 5.8 3.3 10.1 8 10.1 4.6 0 8-4.3 8-10.3 0-4.5-2.2-10.1-7.9-10.1s-8.1 5.2-8.1 10.3zM158.2 32.8c0-3.1-.1-5.8-.2-8.2h4.2l.2 5.2h.2c1.2-3.5 4.1-5.8 7.3-5.8.5 0 .9.1 1.4.2v4.5c-.5-.1-1-.2-1.6-.2-3.4 0-5.8 2.6-6.5 6.2-.1.7-.2 1.4-.2 2.2V51h-4.8V32.8zM173.5 12.3h4.8V51h-4.8V12.3zM206.5 12.3v31.9c0 2.3.1 5 .2 6.8h-4.3l-.2-4.6h-.2c-1.5 2.9-4.7 5.2-9 5.2-6.4 0-11.3-5.4-11.3-13.4-.1-8.8 5.4-14.2 11.9-14.2 4 0 6.8 1.9 8 4h.1V12.3h4.8zm-4.8 23.1c0-.6-.1-1.4-.2-2a7 7 0 00-6.9-5.6c-5 0-7.9 4.4-7.9 10.2 0 5.3 2.6 9.8 7.8 9.8 3.2 0 6.2-2.1 7.1-5.7.2-.7.2-1.3.2-2.1v-4.6zM42.8 64c.1 1.6-1.1 2.9-3.1 2.9-1.7 0-2.9-1.3-2.9-2.9 0-1.7 1.3-3 3-3 1.9 0 3 1.3 3 3zm-5.4 33.8V71.4h4.8v26.4h-4.8zM47.5 78.6c0-2.7-.1-5-.2-7.1h4.3l.3 4.4h.1c1.3-2.5 4.4-5 8.8-5 3.7 0 9.4 2.2 9.4 11.2v15.8h-4.8V82.6c0-4.3-1.6-7.8-6.1-7.8-3.2 0-5.6 2.2-6.5 4.9-.2.6-.3 1.4-.3 2.2v15.9h-4.8V78.6zM84 61.6c2.9-.4 6.3-.8 10.1-.8 6.8 0 11.7 1.6 14.9 4.6 3.3 3 5.2 7.3 5.2 13.2 0 6-1.9 10.9-5.3 14.3-3.4 3.4-9.1 5.3-16.3 5.3-3.4 0-6.2-.2-8.6-.4V61.6zm4.8 32.5c1.2.2 3 .3 4.8.3 10.2 0 15.7-5.7 15.7-15.6.1-8.7-4.9-14.2-14.9-14.2-2.5 0-4.3.2-5.6.5v29zM132.1 97.8l-.4-3.3h-.2a9.79 9.79 0 01-8.1 3.9c-5.4 0-8.1-3.8-8.1-7.6 0-6.4 5.7-9.9 15.9-9.8v-.5c0-2.2-.6-6.1-6-6.1-2.5 0-5 .8-6.9 2l-1.1-3.2c2.2-1.4 5.4-2.3 8.7-2.3 8.1 0 10.1 5.5 10.1 10.8v9.9c0 2.3.1 4.5.4 6.3h-4.3zm-.7-13.4c-5.3-.1-11.2.8-11.2 5.9 0 3.1 2.1 4.6 4.5 4.6 3.4 0 5.6-2.2 6.4-4.4.2-.5.3-1 .3-1.5v-4.6zM146.6 63.9v7.6h6.9v3.7h-6.9v14.2c0 3.3.9 5.1 3.6 5.1 1.3 0 2.2-.2 2.8-.3l.2 3.6c-.9.4-2.4.7-4.3.7-2.2 0-4-.7-5.2-2-1.4-1.4-1.9-3.8-1.9-6.9V75.1h-4.1v-3.7h4.1v-6.3l4.8-1.2zM171.4 97.8l-.4-3.3h-.2a9.79 9.79 0 01-8.1 3.9c-5.4 0-8.1-3.8-8.1-7.6 0-6.4 5.7-9.9 15.9-9.8v-.5c0-2.2-.6-6.1-6-6.1-2.5 0-5 .8-6.9 2l-1.1-3.2c2.2-1.4 5.4-2.3 8.7-2.3 8.1 0 10.1 5.5 10.1 10.8v9.9c0 2.3.1 4.5.4 6.3h-4.3zm-.7-13.4c-5.3-.1-11.2.8-11.2 5.9 0 3.1 2.1 4.6 4.5 4.6 3.4 0 5.6-2.2 6.4-4.4.2-.5.3-1 .3-1.5v-4.6z"/></g></g></a></g><a href="https://ourworldindata.org/grapher/projections-of-the-number-of-children-per-woman-by-education-scenario" target="_blank"><text font-size="22.5" x="15" y="33" fill="#555"><tspan x="15" y="33">Projections of the Number of Children per Woman by education scenario</tspan></text></a><text font-size="14.4" x="15" y="51" fill="#666"><tspan x="15" y="51.02">Shown is the total fertility rate as projected by the Wittgenstein Centre. In the original data the fertility rate refer to 5</tspan><tspan x="15" y="66.86">year windows. For limitations of the visualisation tool the mid-year for each window is shown here instead. (For</tspan><tspan x="15" y="82.7">example 1973 here refers to the period 1970-1975 in the original data.)</tspan></text></g><g class="LineChart"><defs><clipPath id="a"><path d="M19.07 0h830v903.2h-830z"/></clipPath></defs><g class="AxisBoxView"><g class="HorizontalAxis" fill="#666" text-anchor="middle" font-size="16.2"><text x="29.1" y="556.5">1973</text><text x="143.2" y="556.5">2000</text><text x="227.7" y="556.5">2020</text><text x="312.2" y="556.5">2040</text><text x="396.7" y="556.5">2060</text><text x="481.2" y="556.5">2080</text><text x="557.3" y="556.5">2098</text></g><g class="VerticalAxis" fill="#666" dominant-baseline="middle" text-anchor="end" font-size="16.2"><text x="24.07" y="535.3">0</text><text x="24.07" y="438.6">1</text><text x="24.07" y="341.9">2</text><text x="24.07" y="245.1">3</text><text x="24.07" y="148.4">4</text></g><g class="AxisGridLines"><path stroke="#ccc" d="M29.07 535.3h528.21"/><path stroke="#ddd" stroke-dasharray="3,2" d="M29.07 438.6h528.21M29.07 341.9h528.21M29.07 245.1h528.21M29.07 148.4h528.21"/></g><g class="AxisGridLines" stroke="#ddd" stroke-dasharray="3,2"><path d="M58.7 535.3V104.9M143.2 535.3V104.9M227.7 535.3V104.9M312.2 535.3V104.9M396.7 535.3V104.9M481.2 535.3V104.9"/></g></g><g clip-path="url(#a)"><g class="HeightedLegend clickable"><g class="legendMark"><path fill="#34983f" d="M567.28 346.45h10v2.5h-10z"/><text font-size="14.4" x="582.3" y="344.3" fill="#333"><tspan x="582.28" y="344.27">World - Constant Enrollment Rates</tspan><tspan x="582.28" y="360.11">(CER) scenario</tspan></text></g><g class="legendMark"><path fill="#ca2628" d="M567.28 376.35h10v2.5h-10z"/><text font-size="14.4" x="582.3" y="374.2" fill="#333"><tspan x="582.28" y="374.17">World - Global Education Trends (GET)</tspan><tspan x="582.28" y="390.01">scenario</tspan></text></g><g class="legendMark"><path fill="#3360a9" d="M567.28 398.5h10v2.5h-10z"/><text font-size="14.4" x="582.3" y="404.1" fill="#333"><tspan x="582.28" y="404.07">World - Fast Track (FT) scenario</tspan></text></g></g><g class="Lines"><g class="key-World_0"><path stroke="#3360a9" stroke-linecap="round" d="M29 105l21 59 21 24 22 19 21 34 21 25 21 16 21 10 21 16 21 13 21 10 22 7 21 7 21 5 21 5 21 4 21 4 21 3 21 3 22 2 21 2 21 1 21 1 21 2 21 2h21" fill="none" stroke-width="1.5"/><g fill="#3360a9"><circle cx="29" cy="105" r="2"/><circle cx="50" cy="164" r="2"/><circle cx="71" cy="188" r="2"/><circle cx="93" cy="207" r="2"/><circle cx="114" cy="241" r="2"/><circle cx="135" cy="266" r="2"/><circle cx="156" cy="282" r="2"/><circle cx="177" cy="292" r="2"/><circle cx="198" cy="308" r="2"/><circle cx="219" cy="321" r="2"/><circle cx="240" cy="331" r="2"/><circle cx="262" cy="338" r="2"/><circle cx="283" cy="345" r="2"/><circle cx="304" cy="350" r="2"/><circle cx="325" cy="355" r="2"/><circle cx="346" cy="359" r="2"/><circle cx="367" cy="363" r="2"/><circle cx="388" cy="366" r="2"/><circle cx="409" cy="369" r="2"/><circle cx="431" cy="371" r="2"/><circle cx="452" cy="373" r="2"/><circle cx="473" cy="374" r="2"/><circle cx="494" cy="375" r="2"/><circle cx="515" cy="377" r="2"/><circle cx="536" cy="379" r="2"/><circle cx="557" cy="379" r="2"/></g></g><g class="key-World_1"><path stroke="#ca2628" stroke-linecap="round" d="M29 105l21 59 21 24 22 19 21 34 21 25 21 16 21 10 21 11 21 5 21 7 22 7 21 3 21 6 21 5 21 6 21 6 21 5 21 3 22 3 21 3 21 3 21 2 21 3 21 1 21 2" fill="none" stroke-width="1.5"/><g fill="#ca2628"><circle cx="29" cy="105" r="2"/><circle cx="50" cy="164" r="2"/><circle cx="71" cy="188" r="2"/><circle cx="93" cy="207" r="2"/><circle cx="114" cy="241" r="2"/><circle cx="135" cy="266" r="2"/><circle cx="156" cy="282" r="2"/><circle cx="177" cy="292" r="2"/><circle cx="198" cy="303" r="2"/><circle cx="219" cy="308" r="2"/><circle cx="240" cy="315" r="2"/><circle cx="262" cy="322" r="2"/><circle cx="283" cy="325" r="2"/><circle cx="304" cy="331" r="2"/><circle cx="325" cy="336" r="2"/><circle cx="346" cy="342" r="2"/><circle cx="367" cy="348" r="2"/><circle cx="388" cy="353" r="2"/><circle cx="409" cy="356" r="2"/><circle cx="431" cy="359" r="2"/><circle cx="452" cy="362" r="2"/><circle cx="473" cy="365" r="2"/><circle cx="494" cy="367" r="2"/><circle cx="515" cy="370" r="2"/><circle cx="536" cy="371" r="2"/><circle cx="557" cy="373" r="2"/></g></g><g class="key-World_2"><path stroke="#34983f" stroke-linecap="round" d="M29 105l21 59 21 24 22 19 21 34 21 25 21 16 21 10 21 7h21l21 4 22 3 21 3 21 4 21 4 21 5 21 3 21 5 21 4 22 2 21 4 21 2 21 1 21 2 21 2 21 1" fill="none" stroke-width="1.5"/><g fill="#34983f"><circle cx="29" cy="105" r="2"/><circle cx="50" cy="164" r="2"/><circle cx="71" cy="188" r="2"/><circle cx="93" cy="207" r="2"/><circle cx="114" cy="241" r="2"/><circle cx="135" cy="266" r="2"/><circle cx="156" cy="282" r="2"/><circle cx="177" cy="292" r="2"/><circle cx="198" cy="299" r="2"/><circle cx="219" cy="299" r="2"/><circle cx="240" cy="303" r="2"/><circle cx="262" cy="306" r="2"/><circle cx="283" cy="309" r="2"/><circle cx="304" cy="313" r="2"/><circle cx="325" cy="317" r="2"/><circle cx="346" cy="322" r="2"/><circle cx="367" cy="325" r="2"/><circle cx="388" cy="330" r="2"/><circle cx="409" cy="334" r="2"/><circle cx="431" cy="336" r="2"/><circle cx="452" cy="340" r="2"/><circle cx="473" cy="342" r="2"/><circle cx="494" cy="343" r="2"/><circle cx="515" cy="345" r="2"/><circle cx="536" cy="347" r="2"/><circle cx="557" cy="348" r="2"/></g></g></g></g></g><g class="SourcesFooter" fill="#777"><g class="clickable" fill="#777"><text font-size="12.6" x="15" y="581.6"><tspan x="15" y="581.58">Source: WC-IIASA (Fertility Rate by education scenario) (2017)</tspan></text></g><text font-size="12.6" x="422.7" y="581.6"><tspan x="422.73" y="581.58"><a target="_blank" href="https://ourworldindata.org/world-population-future-eductation-now/" fill="#777">OurWorldInData.org/world-population-future-eductation-now/</a> • <a href="http://creativecommons.org/licenses/by-sa/4.0/deed.en_US" target="_blank" fill="#777">CC BY-SA</a></tspan></text></g></g></svg>

<svg xmlns="http://www.w3.org/2000/svg" version="1.1" style="font-family: 'Helvetica Neue', Helvetica, Arial, sans-serif; font-size: 18px; background-color: white; text-rendering: optimizeLegibility; -webkit-font-smoothing: antialiased;" width="850" height="600"><g class="ChartTab"><g class="HeaderView"><g opacity="0.8" transform="translate(770, 15) scale(0.31)"><a xmlns:xlink="http://www.w3.org/1999/xlink" xlink:href="https://ourworldindata.org" target="_blank"><g><rect x="0" y="0" fill="#1B2543" width="211.2" height="130.1"/><rect x="0" y="112.2" fill="#E63912" width="211.2" height="17.9"/><g><rect x="1.2" y="12.3" fill="none" width="210.2" height="99.2"/><path fill="#FFFFFF" d="M37.8,32.2c0,12.7-7.7,19.4-17.1,19.4c-9.7,0-16.6-7.5-16.6-18.7c0-11.7,7.3-19.3,17.1-19.3 C31.3,13.7,37.8,21.3,37.8,32.2z M9.2,32.8c0,7.9,4.3,14.9,11.8,14.9c7.5,0,11.8-6.9,11.8-15.3c0-7.3-3.8-14.9-11.8-14.9 C13.1,17.5,9.2,24.8,9.2,32.8z"/><path fill="#FFFFFF" d="M62.7,43.8c0,2.7,0.1,5.1,0.2,7.2h-4.3l-0.3-4.3h-0.1c-1.3,2.1-4,4.9-8.8,4.9c-4.2,0-9.1-2.3-9.1-11.6 V24.6h4.8v14.6c0,5,1.5,8.4,5.9,8.4c3.2,0,5.5-2.2,6.3-4.4c0.3-0.7,0.4-1.6,0.4-2.5V24.6h4.8V43.8z"/><path fill="#FFFFFF" d="M67.3,32.8c0-3.1-0.1-5.8-0.2-8.2h4.2l0.2,5.2h0.2c1.2-3.5,4.1-5.8,7.3-5.8c0.5,0,0.9,0.1,1.4,0.2v4.5 c-0.5-0.1-1-0.2-1.6-0.2c-3.4,0-5.8,2.6-6.5,6.2c-0.1,0.7-0.2,1.4-0.2,2.2V51h-4.8V32.8z"/><path fill="#FFFFFF" d="M95.4,51l-9.4-36.8h5l4.4,18.6c1.1,4.6,2.1,9.2,2.7,12.7h0.1c0.6-3.7,1.8-8,3-12.8l4.9-18.5h5l4.5,18.7 c1,4.4,2,8.7,2.6,12.6h0.1c0.8-4,1.8-8.1,3-12.7l4.9-18.5h4.9L120.6,51h-5L111,31.9c-1.1-4.7-1.9-8.3-2.4-12h-0.1 c-0.7,3.7-1.5,7.3-2.8,12L100.4,51H95.4z"/><path fill="#FFFFFF" d="M154.9,37.6c0,9.8-6.8,14-13.2,14c-7.2,0-12.7-5.2-12.7-13.6c0-8.8,5.8-14,13.1-14 C149.8,24,154.9,29.5,154.9,37.6z M133.9,37.9c0,5.8,3.3,10.1,8,10.1c4.6,0,8-4.3,8-10.3c0-4.5-2.2-10.1-7.9-10.1 C136.3,27.6,133.9,32.8,133.9,37.9z"/><path fill="#FFFFFF" d="M158.2,32.8c0-3.1-0.1-5.8-0.2-8.2h4.2l0.2,5.2h0.2c1.2-3.5,4.1-5.8,7.3-5.8c0.5,0,0.9,0.1,1.4,0.2v4.5 c-0.5-0.1-1-0.2-1.6-0.2c-3.4,0-5.8,2.6-6.5,6.2c-0.1,0.7-0.2,1.4-0.2,2.2V51h-4.8V32.8z"/><path fill="#FFFFFF" d="M173.5,12.3h4.8V51h-4.8V12.3z"/><path fill="#FFFFFF" d="M206.5,12.3v31.9c0,2.3,0.1,5,0.2,6.8h-4.3l-0.2-4.6H202c-1.5,2.9-4.7,5.2-9,5.2 c-6.4,0-11.3-5.4-11.3-13.4c-0.1-8.8,5.4-14.2,11.9-14.2c4,0,6.8,1.9,8,4h0.1V12.3H206.5z M201.7,35.4c0-0.6-0.1-1.4-0.2-2 c-0.7-3.1-3.3-5.6-6.9-5.6c-5,0-7.9,4.4-7.9,10.2c0,5.3,2.6,9.8,7.8,9.8c3.2,0,6.2-2.1,7.1-5.7c0.2-0.7,0.2-1.3,0.2-2.1V35.4z"/><path fill="#FFFFFF" d="M42.8,64c0.1,1.6-1.1,2.9-3.1,2.9c-1.7,0-2.9-1.3-2.9-2.9c0-1.7,1.3-3,3-3C41.7,61,42.8,62.3,42.8,64z M37.4,97.8V71.4h4.8v26.4H37.4z"/><path fill="#FFFFFF" d="M47.5,78.6c0-2.7-0.1-5-0.2-7.1h4.3l0.3,4.4h0.1c1.3-2.5,4.4-5,8.8-5c3.7,0,9.4,2.2,9.4,11.2v15.8h-4.8 V82.6c0-4.3-1.6-7.8-6.1-7.8c-3.2,0-5.6,2.2-6.5,4.9c-0.2,0.6-0.3,1.4-0.3,2.2v15.9h-4.8V78.6z"/><path fill="#FFFFFF" d="M84,61.6c2.9-0.4,6.3-0.8,10.1-0.8c6.8,0,11.7,1.6,14.9,4.6c3.3,3,5.2,7.3,5.2,13.2c0,6-1.9,10.9-5.3,14.3 c-3.4,3.4-9.1,5.3-16.3,5.3c-3.4,0-6.2-0.2-8.6-0.4V61.6z M88.8,94.1c1.2,0.2,3,0.3,4.8,0.3c10.2,0,15.7-5.7,15.7-15.6 c0.1-8.7-4.9-14.2-14.9-14.2c-2.5,0-4.3,0.2-5.6,0.5V94.1z"/><path fill="#FFFFFF" d="M132.1,97.8l-0.4-3.3h-0.2c-1.5,2.1-4.3,3.9-8.1,3.9c-5.4,0-8.1-3.8-8.1-7.6c0-6.4,5.7-9.9,15.9-9.8v-0.5 c0-2.2-0.6-6.1-6-6.1c-2.5,0-5,0.8-6.9,2l-1.1-3.2c2.2-1.4,5.4-2.3,8.7-2.3c8.1,0,10.1,5.5,10.1,10.8v9.9c0,2.3,0.1,4.5,0.4,6.3 H132.1z M131.4,84.4c-5.3-0.1-11.2,0.8-11.2,5.9c0,3.1,2.1,4.6,4.5,4.6c3.4,0,5.6-2.2,6.4-4.4c0.2-0.5,0.3-1,0.3-1.5V84.4z"/><path fill="#FFFFFF" d="M146.6,63.9v7.6h6.9v3.7h-6.9v14.2c0,3.3,0.9,5.1,3.6,5.1c1.3,0,2.2-0.2,2.8-0.3l0.2,3.6 c-0.9,0.4-2.4,0.7-4.3,0.7c-2.2,0-4-0.7-5.2-2c-1.4-1.4-1.9-3.8-1.9-6.9V75.1h-4.1v-3.7h4.1v-6.3L146.6,63.9z"/><path fill="#FFFFFF" d="M171.4,97.8l-0.4-3.3h-0.2c-1.5,2.1-4.3,3.9-8.1,3.9c-5.4,0-8.1-3.8-8.1-7.6c0-6.4,5.7-9.9,15.9-9.8v-0.5 c0-2.2-0.6-6.1-6-6.1c-2.5,0-5,0.8-6.9,2l-1.1-3.2c2.2-1.4,5.4-2.3,8.7-2.3c8.1,0,10.1,5.5,10.1,10.8v9.9c0,2.3,0.1,4.5,0.4,6.3 H171.4z M170.7,84.4c-5.3-0.1-11.2,0.8-11.2,5.9c0,3.1,2.1,4.6,4.5,4.6c3.4,0,5.6-2.2,6.4-4.4c0.2-0.5,0.3-1,0.3-1.5V84.4z"/></g></g></a></g><a href="https://ourworldindata.org/grapher/projections-of-the-number-of-children-per-woman-by-education-scenario" target="_blank"><text font-size="22.50" x="15.0" y="33.0" fill="#555"><tspan x="15" y="33">Projections of the Number of Children per Woman by education scenario</tspan></text></a><text font-size="14.40" x="15.0" y="51.0" fill="#666"><tspan x="15" y="51.019999999999996">Shown is the total fertility rate as projected by the Wittgenstein Centre. In the original data the fertility rate refer to 5</tspan><tspan x="15" y="66.86">year windows. For limitations of the visualisation tool the mid-year for each window is shown here instead. (For</tspan><tspan x="15" y="82.7">example 1973 here refers to the period 1970-1975 in the original data.)</tspan></text></g><g class="LineChart"><defs><clipPath id="boundsClip-6"><rect x="19.072000000000003" y="0" width="830" height="903.2"></rect></clipPath></defs><g class="AxisBoxView"><g class="HorizontalAxis"><text x="29.1" y="556.5" fill="#666" text-anchor="middle" font-size="16.2">1973</text><text x="143.2" y="556.5" fill="#666" text-anchor="middle" font-size="16.2">2000</text><text x="227.7" y="556.5" fill="#666" text-anchor="middle" font-size="16.2">2020</text><text x="312.2" y="556.5" fill="#666" text-anchor="middle" font-size="16.2">2040</text><text x="396.7" y="556.5" fill="#666" text-anchor="middle" font-size="16.2">2060</text><text x="481.2" y="556.5" fill="#666" text-anchor="middle" font-size="16.2">2080</text><text x="557.3" y="556.5" fill="#666" text-anchor="middle" font-size="16.2">2098</text></g><g class="VerticalAxis"><text x="24.07" y="535.3" fill="#666" dominant-baseline="middle" text-anchor="end" font-size="16.2">0</text><text x="24.07" y="438.6" fill="#666" dominant-baseline="middle" text-anchor="end" font-size="16.2">1</text><text x="24.07" y="341.9" fill="#666" dominant-baseline="middle" text-anchor="end" font-size="16.2">2</text><text x="24.07" y="245.1" fill="#666" dominant-baseline="middle" text-anchor="end" font-size="16.2">3</text><text x="24.07" y="148.4" fill="#666" dominant-baseline="middle" text-anchor="end" font-size="16.2">4</text></g><g class="AxisGridLines"><line x1="29.07" y1="535.3" x2="557.28" y2="535.3" stroke="#ccc"></line><line x1="29.07" y1="438.6" x2="557.28" y2="438.6" stroke="#ddd" stroke-dasharray="3,2"></line><line x1="29.07" y1="341.9" x2="557.28" y2="341.9" stroke="#ddd" stroke-dasharray="3,2"></line><line x1="29.07" y1="245.1" x2="557.28" y2="245.1" stroke="#ddd" stroke-dasharray="3,2"></line><line x1="29.07" y1="148.4" x2="557.28" y2="148.4" stroke="#ddd" stroke-dasharray="3,2"></line></g><g class="AxisGridLines"><line x1="58.7" y1="535.30" x2="58.7" y2="104.90" stroke="#ddd" stroke-dasharray="3,2"></line><line x1="143.2" y1="535.30" x2="143.2" y2="104.90" stroke="#ddd" stroke-dasharray="3,2"></line><line x1="227.7" y1="535.30" x2="227.7" y2="104.90" stroke="#ddd" stroke-dasharray="3,2"></line><line x1="312.2" y1="535.30" x2="312.2" y2="104.90" stroke="#ddd" stroke-dasharray="3,2"></line><line x1="396.7" y1="535.30" x2="396.7" y2="104.90" stroke="#ddd" stroke-dasharray="3,2"></line><line x1="481.2" y1="535.30" x2="481.2" y2="104.90" stroke="#ddd" stroke-dasharray="3,2"></line></g></g><g clip-path="url(#boundsClip-6)"><g class="HeightedLegend clickable"><g class="legendMark"><rect x="567.28" y="332.75" width="238.05600000000004" height="29.900000000000002" fill="#fff" opacity="0"></rect><rect x="567.28" y="346.45" width="10" height="2.5" fill="#34983f"></rect><text font-size="14.40" x="582.3" y="344.3" fill="#333"><tspan x="582.28" y="344.27">World - Constant Enrollment Rates</tspan><tspan x="582.28" y="360.10999999999996">(CER) scenario</tspan></text></g><g class="legendMark"><rect x="567.28" y="362.65" width="267.72" height="29.900000000000002" fill="#fff" opacity="0"></rect><rect x="567.28" y="376.34999999999997" width="10" height="2.5" fill="#ca2628"></rect><text font-size="14.40" x="582.3" y="374.2" fill="#333"><tspan x="582.28" y="374.16999999999996">World - Global Education Trends (GET)</tspan><tspan x="582.28" y="390.00999999999993">scenario</tspan></text></g><g class="legendMark"><rect x="567.28" y="392.54999999999995" width="223.22400000000002" height="14.4" fill="#fff" opacity="0"></rect><rect x="567.28" y="398.49999999999994" width="10" height="2.5" fill="#3360a9"></rect><text font-size="14.40" x="582.3" y="404.1" fill="#333"><tspan x="582.28" y="404.06999999999994">World - Fast Track (FT) scenario</tspan></text></g></g><g class="Lines"><rect x="29" y="105" width="528" height="430" fill="rgba(255,255,255,0)" opacity="0"></rect><g class="key-World_0"><path stroke="#3360a9" stroke-linecap="round" d="M29 105L50 164L71 188L93 207L114 241L135 266L156 282L177 292L198 308L219 321L240 331L262 338L283 345L304 350L325 355L346 359L367 363L388 366L409 369L431 371L452 373L473 374L494 375L515 377L536 379L557 379" fill="none" stroke-width="1.5"></path><g fill="#3360a9"><circle cx="29" cy="105" r="2"></circle><circle cx="50" cy="164" r="2"></circle><circle cx="71" cy="188" r="2"></circle><circle cx="93" cy="207" r="2"></circle><circle cx="114" cy="241" r="2"></circle><circle cx="135" cy="266" r="2"></circle><circle cx="156" cy="282" r="2"></circle><circle cx="177" cy="292" r="2"></circle><circle cx="198" cy="308" r="2"></circle><circle cx="219" cy="321" r="2"></circle><circle cx="240" cy="331" r="2"></circle><circle cx="262" cy="338" r="2"></circle><circle cx="283" cy="345" r="2"></circle><circle cx="304" cy="350" r="2"></circle><circle cx="325" cy="355" r="2"></circle><circle cx="346" cy="359" r="2"></circle><circle cx="367" cy="363" r="2"></circle><circle cx="388" cy="366" r="2"></circle><circle cx="409" cy="369" r="2"></circle><circle cx="431" cy="371" r="2"></circle><circle cx="452" cy="373" r="2"></circle><circle cx="473" cy="374" r="2"></circle><circle cx="494" cy="375" r="2"></circle><circle cx="515" cy="377" r="2"></circle><circle cx="536" cy="379" r="2"></circle><circle cx="557" cy="379" r="2"></circle></g></g><g class="key-World_1"><path stroke="#ca2628" stroke-linecap="round" d="M29 105L50 164L71 188L93 207L114 241L135 266L156 282L177 292L198 303L219 308L240 315L262 322L283 325L304 331L325 336L346 342L367 348L388 353L409 356L431 359L452 362L473 365L494 367L515 370L536 371L557 373" fill="none" stroke-width="1.5"></path><g fill="#ca2628"><circle cx="29" cy="105" r="2"></circle><circle cx="50" cy="164" r="2"></circle><circle cx="71" cy="188" r="2"></circle><circle cx="93" cy="207" r="2"></circle><circle cx="114" cy="241" r="2"></circle><circle cx="135" cy="266" r="2"></circle><circle cx="156" cy="282" r="2"></circle><circle cx="177" cy="292" r="2"></circle><circle cx="198" cy="303" r="2"></circle><circle cx="219" cy="308" r="2"></circle><circle cx="240" cy="315" r="2"></circle><circle cx="262" cy="322" r="2"></circle><circle cx="283" cy="325" r="2"></circle><circle cx="304" cy="331" r="2"></circle><circle cx="325" cy="336" r="2"></circle><circle cx="346" cy="342" r="2"></circle><circle cx="367" cy="348" r="2"></circle><circle cx="388" cy="353" r="2"></circle><circle cx="409" cy="356" r="2"></circle><circle cx="431" cy="359" r="2"></circle><circle cx="452" cy="362" r="2"></circle><circle cx="473" cy="365" r="2"></circle><circle cx="494" cy="367" r="2"></circle><circle cx="515" cy="370" r="2"></circle><circle cx="536" cy="371" r="2"></circle><circle cx="557" cy="373" r="2"></circle></g></g><g class="key-World_2"><path stroke="#34983f" stroke-linecap="round" d="M29 105L50 164L71 188L93 207L114 241L135 266L156 282L177 292L198 299L219 299L240 303L262 306L283 309L304 313L325 317L346 322L367 325L388 330L409 334L431 336L452 340L473 342L494 343L515 345L536 347L557 348" fill="none" stroke-width="1.5"></path><g fill="#34983f"><circle cx="29" cy="105" r="2"></circle><circle cx="50" cy="164" r="2"></circle><circle cx="71" cy="188" r="2"></circle><circle cx="93" cy="207" r="2"></circle><circle cx="114" cy="241" r="2"></circle><circle cx="135" cy="266" r="2"></circle><circle cx="156" cy="282" r="2"></circle><circle cx="177" cy="292" r="2"></circle><circle cx="198" cy="299" r="2"></circle><circle cx="219" cy="299" r="2"></circle><circle cx="240" cy="303" r="2"></circle><circle cx="262" cy="306" r="2"></circle><circle cx="283" cy="309" r="2"></circle><circle cx="304" cy="313" r="2"></circle><circle cx="325" cy="317" r="2"></circle><circle cx="346" cy="322" r="2"></circle><circle cx="367" cy="325" r="2"></circle><circle cx="388" cy="330" r="2"></circle><circle cx="409" cy="334" r="2"></circle><circle cx="431" cy="336" r="2"></circle><circle cx="452" cy="340" r="2"></circle><circle cx="473" cy="342" r="2"></circle><circle cx="494" cy="343" r="2"></circle><circle cx="515" cy="345" r="2"></circle><circle cx="536" cy="347" r="2"></circle><circle cx="557" cy="348" r="2"></circle></g></g></g></g></g><g style="fill: #777;" class="SourcesFooter"><g style="fill: #777;" class="clickable"><text font-size="12.60" x="15.0" y="581.6"><tspan x="15" y="581.58">Source: WC-IIASA (Fertility Rate by education scenario) (2017)</tspan></text></g><text font-size="12.60" x="422.7" y="581.6"><tspan x="422.728" y="581.58"><a target='_blank' style='fill: #777;' href='https://ourworldindata.org/world-population-future-eductation-now/'>OurWorldInData.org/world-population-future-eductation-now/</a> • <a style="fill: #777;" href="http://creativecommons.org/licenses/by-sa/4.0/deed.en_US" target="_blank">CC BY-SA</a></tspan></text></g></g></svg>
